assets/icons/standard/textbox.svg

<?xml version="1.0"?><svg xmlns="http://www.w3.org/2000/svg" width="100" height="100" viewBox="0 0 100 100"><path fill="#fff" d="m74 80h-48c-3.3 0-6-2.7-6-6v-48c0-3.3 2.7-6 6-6h48c3.3 0 6 2.7 6 6v48c0 3.3-2.7 6-6 6z m-45.9-50v40c0 1.1 0.9 2 2 2h39.9c1.1 0 2-0.9 2-2v-40c0-1.1-0.9-2-2-2h-39.9c-1.1 0-2 0.9-2 2z m8.1 31.9v-23.8c0-1.1 0.9-2 2-2h4c1.1 0 2 0.9 2 2v23.8c0 1.1-0.9 2-2 2h-4c-1.1 0-2-0.9-2-2z"></path></svg>

<svg xmlns="http://www.w3.org/2000/svg" x="0px" y="0px"
	 width="100px" height="100px" viewBox="0 0 100 100" enable-background="new 0 0 100 100" xml:space="preserve">
<path fill="#FFFFFF" d="M74,80H26c-3.3,0-6-2.7-6-6V26c0-3.3,2.7-6,6-6h48c3.3,0,6,2.7,6,6v48C80,77.3,77.3,80,74,80z M28.1,30v40
	c0,1.1,0.9,2,2,2H70c1.1,0,2-0.9,2-2V30c0-1.1-0.9-2-2-2H30.1C29,28,28.1,28.9,28.1,30z"/>
<path fill="#FFFFFF" d="M36.2,61.9V38.1c0-1.1,0.9-2,2-2h4c1.1,0,2,0.9,2,2v23.8c0,1.1-0.9,2-2,2h-4C37.1,63.9,36.2,63,36.2,61.9z"
	/>
</svg>
